X:1
T:Slava v vychnih bogou
T:Slava v vychnih bogou
T:Mikhaïl Strokine (1832-1887) 
C:M. Strokine
%%score [ 1 2 3 4 ]
L:1/8
Q:1/4=90
M:4/4
K:F
V:1 treble nm="Soprano" snm="S."
V:2 treble nm="Alto" snm="A."
V:3 treble-8 nm="Tenor" snm="T."
V:4 bass nm="Bass" snm="B."
V:1
!f! d3"^(reprise )" A A2 A2 | !tenuto!B4 A2 G2 | A2 A2 (GFEG) | !breath!F4 ^c2 c2 | %4
w: Sla- va v vych- nih|Bo- gou i|na- zem- li _ _ _|mir v tche- lo-|
 !tenuto!d4 A4 ||[M:2/4]!mf! B2 A G ||[M:4/4] F4 E4 | F6 z2 :|!f! d3 d d2 d2 | !tenuto!d4 d2 d2 | %10
w: vé- tzeh|bla- go- vo-|lé- ni-|ié.|Sla- va v vych- nih|Bo- gou i|
 d2 d2 (ed^ce) | !breath!d4 ^c2 c2 | !tenuto!!fermata!e4!>(! d4!>)! || %13
w: na- zem- li _ _ _|mir v tche- lo-|vé- tzeh|
[M:2/4]!mf![Q:1/4=80]"^Rall." d2 d c ||[M:4/4] d4 ^c4 | !fermata!d6 z2 || z8 | z8 | z8 | z8 || %20
w: bla- go- vo-|lé- ni-|ié.|||||
[M:2/4] z4 ||[M:4/4] z8 | z8 | z8 ||!p! E3 E E2 G2 | !tenuto!F3 F F2 F2 | G2 G A E2 G2 | %27
w: ||||Gos- po- di ous-|tnié mo- i ot-|ver- zé- chi- i ou-|
 !tenuto!G3 F F2 z2 ||[M:2/4] A2 A2 ||[M:4/4] (B2 A2 G2) z G | (F2 A2) !fermata!G4 | %31
w: sta mo- ia|voz- vé-|stiat _ _ hva-|lou _ Tvo-|
 !fermata!F6 z2 |] %32
w: iou.|
V:2
!f! F3 F F2 F2 | !tenuto!G4 F2 E2 | F2 F2 (ED^CE) | !breath!D4 E2 E2 | !tenuto!F4 F4 || %5
w: Sla- va v vych- nih|Bo- gou i|na- zem- li _ _ _|mir v tche- lo-|vé- tzeh|
[M:2/4]!mf! G2 F E ||[M:4/4] D4 ^C4 | D6 z2 :|!f! A3 A A2 A2 | !tenuto!B4 A2 G2 | A2 A2 A4 | %11
w: bla- go- vo-|lé- ni-|ié.|Sla- va v vych- nih|Bo- gou i|na- zem- li|
 !breath!A4 A2 A2 | !tenuto!!fermata!A4!>(! A4!>)! ||[M:2/4]!mf! G2 A B ||[M:4/4] A4 G4 | %15
w: mir v tche- lo-|vé- tzeh|bla- go- vo-|lé- ni-|
 !fermata!F6 z2 ||!p! E3 E E2 E2 | !tenuto!A3 G F2 F2 | G2 G A E2 G2 | !tenuto!G3 F F4 || %20
w: ié.|Gos- po- di ous-|tnié mo- i ot-|ver- zé- chi i ou-|sta mo- ia|
[M:2/4]!pp! A2!<(! F2!<)! ||[M:4/4] (G2 A2 B2) z!p! G | !tenuto!A4!>(! G4!>)! | !fermata!F6 z2 || %24
w: voz- vé-|stiat _ _ hva-|lou Tvo-|iou.|
!p! ^C3 C C2 E2 | !tenuto!D3 D D2 D2 | E2 E F ^C2 E2 | !tenuto!E3 D D2 z2 ||[M:2/4] F2 F2 || %29
w: Gos- po- di ous-|tnié mo- i ot-|ver- zé- chi i ou-|sta mo- ia|voz- vé-|
[M:4/4] (G2 F2 E2) z E | (D2 F2) !fermata!E4 | !fermata!D6 z2 |] %32
w: stiat _ _ hva-|lou _ Tvo-|iou.|
V:3
!f! A3 A d2 d2 | !tenuto!d4 d2 d2 | d2 A2 A4 | !breath!A4 A2 A2 | (A2 d2) d4 || %5
w: Sla- va v vych- nih|Bo- gou i|na- zem- li|mir v tche- lo-|vé- * tzeh|
[M:2/4]!mf! d2 c B ||[M:4/4] A4 A4 | A6 z2 :|!f! f3 f f2 f2 | !tenuto!g4 f2 e2 | d2 A2 (gfeg) | %11
w: bla- go- vo-|lé- ni-|ié.|Sla- va v vych- nih|Bo- gou i|na- zem- li _ _ _|
 !breath!f4 e2 f2 | !fermata!g4!>(! f4!>)! ||[M:2/4]!mf! d2 d d ||[M:4/4] f4 e4 | !fermata!d6 z2 || %16
w: mir v tche- lo-|vé- tzeh|bla- go- vo-|lé- ni-|ié.|
!p! c3 c c2 c2 | !tenuto!d3 ^c d2 d2 | e2 e f ^c2 e2 | !tenuto!e3 d d4 || %20
w: Gos- po- di ous-|tnié mo- i ot-|ver- zé- chi i ou-|sta mo- ia|
[M:2/4]!pp! d2!<(! d2!<)! ||[M:4/4] d6 z!p! d | !tenuto!f4!>(! e4!>)! | !fermata!d6 z2 || %24
w: voz- vé-|stiat hva-|lou Tvo-|iou.|
!p! A3 A A2 A2 | !tenuto!A3 A A2 A2 | A2 A A A2 A2 | !tenuto!A3 A A2 z2 ||[M:2/4] d2 d2 || %29
w: Gos- po- di ous-|tnié mo- i ot-|ver- zé- chi i ou-|sta mo- ia|voz- vé-|
[M:4/4] (d4 B2) z B | A4 !fermata!A4 | !fermata!A6 z2 |] %32
w: stiat _ hva-|lou Tvo-|iou.|
V:4
!f! D,3 D, D,2 D,2 | !tenuto!D,4 D,2 D,2 | D,2 D,2 (A,2 A,,2) | !breath!D,4 A,,2 A,,2 | %4
w: Sla- va v vych- nih|Bo- gou i|na- zem- li _|mir v tche- lo-|
 !tenuto!D,4 D,4 ||[M:2/4]!mf! G,,2 G,, G,, ||[M:4/4] A,,4 A,,4 | D,6 z2 :|!f! D,3 D, D2 D2 | %9
w: vé- tzeh|bla- go- vo-|lé- ni-|ié.|Sla- va v vych- nih|
 !tenuto!D4 D2 D2 | D2 F,2 A,4 | !breath!D4 A,2 A,2 | !tenuto!!fermata!^C4!>(! D4!>)! || %13
w: Bo- gou i|na- zem- li|mir v tche- lo-|vé- tzeh|
[M:2/4]!mf! B,2 A, G, ||[M:4/4] A,4 A,,4 | !fermata!D,6 z2 ||!p! A,3 A, A,2 G,2 | %17
w: bla- go- vo-|lé- ni-|ié.|Gos- po- di ous-|
 !tenuto!F,3 E, D,2 D,2 | A,2 A, A, A,2 A,2 | !tenuto!D,3 D, D,4 ||[M:2/4]!pp! F,2!<(! A,2!<)! || %21
w: tnié mo- i ot-|ver- zé- chi i ou-|sta mo- ia|voz- vé-|
[M:4/4] (B,2 A,2 G,2) z!p! B, | !tenuto!A,4!>(! A,,4!>)! | !fermata!D,6 z2 || %24
w: stiat _ _ hva-|lou Tvo-|iou.|
!p! A,,3 A,, A,,2 A,,2 | !tenuto!D,3 D, D,2 D,2 | A,,2 A,, A,, A,,2 A,,2 | !tenuto!D,3 D, D,2 z2 || %28
w: Gos- po- di ous-|tnié mo- i ot-|ver- zé- chi i ou-|sta mo- ia|
[M:2/4] D,2 D,2 ||[M:4/4] G,,6 z G,, | A,,4 !fermata!A,,4 | !fermata![D,,D,]6 z2 |] %32
w: voz- vé-|stiat hva-|lou Tvo-|iou.|

